assets/logos/salesforce.svg

<svg width="80" height="80" viewBox="0 0 80 80" fill="none" xmlns="http://www.w3.org/2000/svg">
<path d="M34.633 22.898C36.697 20.7419 39.5706 19.4047 42.7487 19.4047C46.9735 19.4047 50.6594 21.7664 52.6223 25.2723C54.3281 24.5083 56.2162 24.0833 58.2027 24.0833C65.8224 24.0833 72 30.3303 72 38.0359C72 45.7424 65.8224 51.9894 58.2027 51.9894C57.29 51.9899 56.3795 51.899 55.4849 51.7179C53.7564 54.8089 50.4625 56.8974 46.6818 56.8974C45.099 56.8974 43.6021 56.5309 42.2692 55.8792C40.5169 60.0113 36.4345 62.9085 31.6763 62.9085C26.7214 62.9085 22.4985 59.7654 20.8775 55.3573C20.1692 55.5081 19.4352 55.5868 18.6822 55.5868C12.7827 55.5868 8 50.7428 8 44.7664C8 40.7614 10.1488 37.2645 13.3415 35.3936C12.6842 33.8774 12.3186 32.2039 12.3186 30.4445C12.3186 23.5715 17.8844 18 24.7494 18C28.7799 18 32.362 19.9212 34.633 22.898Z" fill="#00A1E0"/>
<path d="M17.2701 41.2875C17.23 41.3927 17.2847 41.4146 17.2974 41.4329C17.4177 41.5206 17.54 41.5837 17.663 41.6541C18.3158 42.0013 18.9322 42.1027 19.5767 42.1027C20.8895 42.1027 21.7045 41.4027 21.7045 40.2757V40.2538C21.7045 39.2119 20.7847 38.8335 19.9213 38.5602L19.8092 38.5237C19.1582 38.3116 18.5966 38.1289 18.5966 37.6993V37.6765C18.5966 37.3091 18.9248 37.0385 19.4336 37.0385C19.9988 37.0385 20.6698 37.2268 21.1019 37.4662C21.1019 37.4662 21.2287 37.5485 21.2752 37.4251C21.3007 37.3593 21.5195 36.7689 21.5423 36.7049C21.5669 36.6354 21.5232 36.5842 21.4785 36.5568C20.9853 36.2561 20.3033 36.0505 19.5977 36.0505L19.4664 36.0514C18.2649 36.0514 17.4261 36.7789 17.4261 37.8217V37.8437C17.4261 38.9431 18.3515 39.2996 19.2185 39.5482L19.358 39.5912C19.9898 39.7858 20.5341 39.9531 20.5341 40.3991V40.4211C20.5341 40.8287 20.1804 41.1321 19.6096 41.1321C19.3881 41.1321 18.6815 41.1275 17.9185 40.644C17.8263 40.5901 17.7726 40.5508 17.7015 40.5078C17.6641 40.4841 17.5702 40.4429 17.5292 40.5673L17.2701 41.2875ZM36.4892 41.2875C36.4491 41.3927 36.5038 41.4146 36.5165 41.4329C36.6368 41.5206 36.7591 41.5837 36.8821 41.6541C37.5348 42.0013 38.1513 42.1027 38.7957 42.1027C40.1085 42.1027 40.9236 41.4027 40.9236 40.2757V40.2538C40.9236 39.2119 40.0037 38.8335 39.1403 38.5602L39.0282 38.5237C38.3773 38.3116 37.8156 38.1289 37.8156 37.6993V37.6765C37.8156 37.3091 38.1438 37.0385 38.6526 37.0385C39.2178 37.0385 39.8888 37.2268 40.321 37.4662C40.321 37.4662 40.4477 37.5485 40.4941 37.4251C40.5196 37.3593 40.7385 36.7689 40.7613 36.7049C40.786 36.6354 40.7421 36.5842 40.6975 36.5568C40.2043 36.2561 39.5223 36.0505 38.8167 36.0505L38.6854 36.0514C37.4838 36.0514 36.645 36.7789 36.645 37.8217V37.8437C36.645 38.9431 37.5704 39.2996 38.4374 39.5482L38.5769 39.5912C39.2087 39.7858 39.7539 39.9531 39.7539 40.3991V40.4211C39.7539 40.8287 39.3993 41.1321 38.8285 41.1321C38.6071 41.1321 37.9005 41.1275 37.1374 40.644C37.0453 40.5901 36.9907 40.5526 36.9214 40.5078C36.8976 40.4923 36.7864 40.4493 36.7481 40.5673L36.4892 41.2875ZM49.6096 39.0801C49.6096 39.7172 49.4911 40.2189 49.2577 40.5735C49.027 40.9245 48.6778 41.0954 48.1911 41.0954C47.7033 41.0954 47.356 40.9254 47.1289 40.5735C46.8991 40.2199 46.7825 39.7172 46.7825 39.0801C46.7825 38.4441 46.8991 37.9432 47.1289 37.5922C47.356 37.2449 47.7033 37.0758 48.1911 37.0758C48.6779 37.0758 49.027 37.2449 49.2586 37.5922C49.4911 37.9431 49.6096 38.444 49.6096 39.0801ZM50.7055 37.8993C50.5978 37.5346 50.4301 37.2129 50.2068 36.9451C49.9834 36.6764 49.7008 36.4607 49.3652 36.3035C49.0306 36.1473 48.635 36.0678 48.1911 36.0678C47.7461 36.0678 47.3505 36.1473 47.0159 36.3035C46.6804 36.4607 46.3978 36.6765 46.1735 36.9451C45.9511 37.2138 45.7833 37.5355 45.6748 37.8993C45.5681 38.2621 45.5143 38.6588 45.5143 39.0801C45.5143 39.5015 45.5681 39.8991 45.6748 40.261C45.7833 40.6247 45.9502 40.9465 46.1745 41.2151C46.3978 41.4839 46.6813 41.6986 47.0159 41.8512C47.3514 42.0039 47.7461 42.0815 48.1911 42.0815C48.6351 42.0815 49.0299 42.0039 49.3653 41.8512C49.6999 41.6986 49.9834 41.4838 50.2068 41.2151C50.4302 40.9473 50.5979 40.6256 50.7055 40.261C50.8131 39.8982 50.8669 39.5005 50.8669 39.0801C50.8669 38.6597 50.813 38.2621 50.7055 37.8993ZM59.7043 40.9253C59.6679 40.8184 59.5649 40.8586 59.5649 40.8586C59.4054 40.9198 59.2357 40.9765 59.0552 41.0048C58.872 41.0331 58.6705 41.0478 58.4544 41.0478C57.9239 41.0478 57.5027 40.8897 57.2009 40.5771C56.8982 40.2645 56.7286 39.7591 56.7304 39.0754C56.7323 38.453 56.8817 37.985 57.1507 37.6287C57.4179 37.2741 57.8245 37.0921 58.3669 37.0921C58.8192 37.0921 59.1638 37.1442 59.5247 37.2585C59.5247 37.2585 59.6113 37.2959 59.6523 37.1826C59.748 36.9157 59.8191 36.7247 59.9213 36.4313C59.9505 36.3482 59.8794 36.3125 59.8538 36.3024C59.7116 36.2467 59.3761 36.1563 59.1226 36.1178C58.8856 36.0813 58.6085 36.0621 58.3003 36.0621C57.8398 36.0621 57.4296 36.1407 57.0787 36.2979C56.7286 36.4542 56.4314 36.6699 56.1962 36.9386C55.9609 37.2074 55.7823 37.529 55.6629 37.8928C55.5443 38.2556 55.4842 38.6541 55.4842 39.0754C55.4842 39.9867 55.7294 40.7233 56.2136 41.2625C56.6985 41.8036 57.427 42.0787 58.377 42.0787C58.9386 42.0787 59.5148 41.9645 59.9287 41.8009C59.9287 41.8009 60.008 41.7625 59.9734 41.6702L59.7043 40.9253ZM61.6217 38.4699C61.6737 38.1162 61.7712 37.8219 61.9217 37.5925C62.1487 37.2443 62.4951 37.0533 62.982 37.0533C63.4689 37.0533 63.7907 37.2452 64.0213 37.5925C64.1745 37.8219 64.241 38.129 64.2675 38.4699H61.6217ZM65.3113 37.6921C65.2183 37.3402 64.9876 36.9846 64.8363 36.8219C64.5974 36.5642 64.3641 36.3842 64.1325 36.2836C63.8298 36.1538 63.467 36.0679 63.0695 36.0679C62.6064 36.0679 62.1861 36.1457 61.8451 36.3065C61.5033 36.4674 61.2161 36.6867 60.9909 36.96C60.7656 37.2323 60.5961 37.5568 60.4885 37.9251C60.38 38.2917 60.3253 38.6911 60.3253 39.1123C60.3253 39.541 60.3819 39.9404 60.494 40.2996C60.6071 40.6615 60.7875 40.9805 61.0319 41.2446C61.2753 41.5106 61.5889 41.719 61.9645 41.8642C62.3374 42.0086 62.7906 42.0836 63.3111 42.0826C64.3824 42.079 64.9466 41.8395 65.1791 41.7106C65.2202 41.6878 65.2594 41.6476 65.2101 41.5325L64.9676 40.8515C64.9312 40.7501 64.8281 40.7875 64.8281 40.7875C64.5628 40.8863 64.1854 41.0636 63.3056 41.0618C62.7303 41.0609 62.3036 40.8909 62.0365 40.6249C61.7621 40.3526 61.6281 39.9522 61.6044 39.3874L65.314 39.391C65.314 39.391 65.4115 39.3892 65.4216 39.2941C65.4253 39.2541 65.5493 38.5302 65.3113 37.6921ZM31.9129 38.4699C31.9658 38.1162 32.0625 37.8219 32.2129 37.5925C32.4399 37.2443 32.7863 37.0533 33.2732 37.0533C33.76 37.0533 34.0818 37.2452 34.3134 37.5925C34.4656 37.8219 34.5321 38.129 34.5586 38.4699H31.9129ZM35.6016 37.6921C35.5086 37.3402 35.2789 36.9846 35.1276 36.8219C34.8887 36.5642 34.6553 36.3842 34.4237 36.2836C34.121 36.1538 33.7583 36.0679 33.3607 36.0679C32.8985 36.0679 32.4773 36.1457 32.1363 36.3065C31.7945 36.4674 31.5073 36.6867 31.2821 36.96C31.0569 37.2323 30.8873 37.5568 30.7798 37.9251C30.6722 38.2917 30.6166 38.6911 30.6166 39.1123C30.6166 39.541 30.6731 39.9404 30.7853 40.2996C30.8984 40.6615 31.0789 40.9805 31.3232 41.2446C31.5666 41.5106 31.8802 41.719 32.2558 41.8642C32.6287 42.0086 33.0818 42.0836 33.6024 42.0826C34.6736 42.079 35.2379 41.8395 35.4704 41.7106C35.5115 41.6878 35.5506 41.6476 35.5014 41.5325L35.2599 40.8515C35.2224 40.7501 35.1195 40.7875 35.1195 40.7875C34.8542 40.8863 34.4776 41.0636 33.596 41.0618C33.0217 41.0609 32.595 40.8909 32.3279 40.6249C32.0534 40.3526 31.9195 39.9522 31.8957 39.3874L35.6053 39.391C35.6053 39.391 35.7029 39.3892 35.7129 39.2941C35.7164 39.2541 35.8404 38.5302 35.6016 37.6921ZM23.8946 40.9049C23.7496 40.7888 23.7296 40.7596 23.6804 40.6847C23.6074 40.5704 23.5701 40.4077 23.5701 40.2012C23.5701 39.874 23.6776 39.6391 23.901 39.481C23.8983 39.4819 24.2201 39.2022 24.9768 39.2122C25.5083 39.2196 25.9832 39.2982 25.9832 39.2982V40.989H25.9841C25.9841 40.989 25.5128 41.0904 24.9822 41.1224C24.2274 41.1681 23.8919 40.904 23.8946 40.9049ZM25.3706 38.2919C25.2202 38.2809 25.025 38.2745 24.7916 38.2745C24.4735 38.2745 24.1663 38.3147 23.8782 38.3924C23.5883 38.4701 23.3275 38.5917 23.1032 38.7525C22.8793 38.9127 22.6952 39.1226 22.5654 39.3657C22.4341 39.6107 22.3675 39.8995 22.3675 40.2231C22.3675 40.5521 22.424 40.8382 22.5371 41.0722C22.6502 41.3071 22.8133 41.5026 23.0212 41.6535C23.2272 41.8043 23.4816 41.9148 23.7769 41.9815C24.0678 42.0483 24.3978 42.082 24.7588 42.082C25.139 42.082 25.5183 42.051 25.8857 41.9879C26.2494 41.9257 26.6961 41.8352 26.8201 41.807C26.907 41.786 26.9937 41.7637 27.08 41.7402C27.1721 41.7174 27.1648 41.6187 27.1648 41.6187L27.1629 38.2179C27.1629 37.472 26.9642 36.919 26.5731 36.5763C26.1838 36.2345 25.6103 36.0617 24.8692 36.0617C24.5911 36.0617 24.1434 36.1002 23.8754 36.1541C23.8754 36.1541 23.0649 36.3113 22.7312 36.5727C22.7312 36.5727 22.6583 36.6184 22.6984 36.7208L22.961 37.4282C22.9938 37.5196 23.0823 37.4885 23.0823 37.4885C23.0823 37.4885 23.1105 37.4775 23.1434 37.4583C23.8573 37.069 24.7598 37.0809 24.7598 37.0809C25.161 37.0809 25.4691 37.1613 25.6769 37.3212C25.8793 37.4766 25.9823 37.7114 25.9823 38.2068V38.364C25.6632 38.3184 25.3706 38.2919 25.3706 38.2919ZM55.2904 36.3757C55.3186 36.2916 55.2594 36.2514 55.2347 36.2423C55.1719 36.2176 54.8564 36.1509 54.613 36.1353C54.1472 36.107 53.8883 36.1856 53.6566 36.2898C53.4269 36.3939 53.1717 36.5621 53.0294 36.7532V36.3008C53.0294 36.2377 52.9847 36.1874 52.9227 36.1874H51.9718C51.9099 36.1874 51.8652 36.2376 51.8652 36.3008V41.8476C51.8652 41.9097 51.9163 41.9609 51.9782 41.9609H52.9528C52.9827 41.9608 53.0112 41.9487 53.0322 41.9275C53.0533 41.9062 53.065 41.8775 53.0649 41.8476V39.0765C53.0649 38.7045 53.106 38.3335 53.1881 38.1004C53.2683 37.87 53.3777 37.6854 53.5126 37.5529C53.6484 37.4213 53.8025 37.329 53.9712 37.2769C54.1435 37.2239 54.334 37.2065 54.469 37.2065C54.6631 37.2065 54.8765 37.2567 54.8765 37.2567C54.9475 37.265 54.9877 37.2211 55.0113 37.1562C55.0752 36.9862 55.2557 36.4771 55.2904 36.3757Z" fill="white"/>
<path d="M46.142 33.805C46.0235 33.7684 45.9159 33.7437 45.7755 33.7172C45.6332 33.6917 45.4637 33.6788 45.2714 33.6788C44.6003 33.6788 44.0715 33.8689 43.7005 34.2436C43.3313 34.6166 43.0805 35.1841 42.9547 35.9309L42.9091 36.1822H42.0668C42.0668 36.1822 41.9647 36.1785 41.9427 36.2901L41.8051 37.0642C41.7951 37.1373 41.827 37.1839 41.9255 37.1839H42.7451L41.9136 41.8378C41.8488 42.2125 41.7741 42.5206 41.6911 42.7545C41.6099 42.9848 41.5307 43.1575 41.4322 43.2837C41.3374 43.4044 41.248 43.4939 41.093 43.546C40.9654 43.5889 40.8177 43.609 40.6563 43.609C40.567 43.609 40.4476 43.5943 40.3591 43.5761C40.2716 43.5587 40.2251 43.5396 40.1586 43.5112C40.1586 43.5112 40.0629 43.4747 40.0245 43.5706C39.9944 43.6501 39.7757 44.2524 39.7492 44.3265C39.7237 44.4005 39.7601 44.4581 39.8066 44.4754C39.916 44.5138 39.9971 44.5394 40.1457 44.575C40.3518 44.6235 40.5259 44.6262 40.6891 44.6262C41.03 44.6262 41.3418 44.5778 41.5999 44.4846C41.8588 44.3905 42.0848 44.2268 42.2854 44.0057C42.5015 43.7662 42.6373 43.5158 42.7669 43.1731C42.8954 42.8349 43.0058 42.4145 43.0932 41.9246L43.9292 37.1839H45.1509C45.1509 37.1839 45.2538 37.1875 45.2749 37.0752L45.4134 36.302C45.4226 36.228 45.3916 36.1822 45.2921 36.1822H44.1061C44.1125 36.1558 44.1662 35.7371 44.3021 35.3433C44.3605 35.176 44.4698 35.0398 44.5619 34.9466C44.6532 34.8552 44.758 34.7903 44.8729 34.7528C44.9905 34.7144 45.1246 34.6962 45.2713 34.6962C45.3825 34.6962 45.4928 34.7089 45.5758 34.7263C45.6906 34.751 45.7353 34.7638 45.7654 34.773C45.8867 34.8095 45.9031 34.7739 45.9268 34.7154L46.2104 33.9349C46.2395 33.8506 46.1675 33.815 46.142 33.805ZM29.5699 41.8479C29.5699 41.91 29.5253 41.9603 29.4633 41.9603H28.4795C28.4175 41.9603 28.3738 41.91 28.3738 41.8479V33.911C28.3738 33.8489 28.4175 33.7986 28.4795 33.7986H29.4633C29.5253 33.7986 29.5699 33.8489 29.5699 33.911V41.8479Z" fill="white"/>
</svg>

<svg xmlns="http://www.w3.org/2000/svg" width="80" height="80" fill="none" viewBox="0 0 80 80"><path fill="#00a1e0" d="M34.633 22.898c2.064-2.156 4.938-3.493 8.116-3.493 4.224 0 7.91 2.361 9.873 5.867a13.6 13.6 0 0 1 5.58-1.189C65.823 24.083 72 30.33 72 38.036s-6.178 13.953-13.797 13.953a13.7 13.7 0 0 1-2.718-.271c-1.729 3.09-5.023 5.18-8.803 5.18-1.583 0-3.08-.367-4.413-1.019-1.752 4.132-5.834 7.03-10.593 7.03-4.955 0-9.177-3.144-10.798-7.552q-1.065.228-2.196.23C12.782 55.587 8 50.743 8 44.767a10.84 10.84 0 0 1 5.342-9.373 12.4 12.4 0 0 1-1.023-4.95c0-6.872 5.565-12.444 12.43-12.444 4.03 0 7.613 1.921 9.884 4.898"/><path fill="#fff" d="M17.27 41.288c-.04.105.015.127.027.145.12.088.243.15.366.221.653.347 1.27.449 1.914.449 1.313 0 2.127-.7 2.127-1.827v-.022c0-1.042-.92-1.42-1.783-1.694l-.112-.036c-.65-.212-1.212-.395-1.212-.825v-.023c0-.367.328-.638.837-.638.565 0 1.236.189 1.668.428 0 0 .127.082.173-.04.026-.067.245-.657.267-.721.025-.07-.019-.12-.064-.148a3.7 3.7 0 0 0-1.88-.507l-.132.001c-1.201 0-2.04.728-2.04 1.77v.023c0 1.1.926 1.456 1.793 1.704l.139.043c.632.195 1.176.362 1.176.808v.022c0 .408-.354.711-.924.711-.222 0-.928-.005-1.691-.488-.093-.054-.146-.093-.218-.136-.037-.024-.13-.065-.172.06zm19.22 0c-.04.105.014.127.026.145.12.088.243.15.366.221.653.347 1.27.449 1.914.449 1.313 0 2.128-.7 2.128-1.827v-.022c0-1.042-.92-1.42-1.784-1.694l-.112-.036c-.65-.212-1.212-.395-1.212-.825v-.023c0-.367.328-.638.837-.638.565 0 1.236.189 1.668.428 0 0 .127.082.173-.04.026-.067.245-.657.267-.721.025-.07-.019-.12-.064-.148a3.7 3.7 0 0 0-1.88-.507l-.132.001c-1.201 0-2.04.728-2.04 1.77v.023c0 1.1.925 1.456 1.792 1.704l.14.043c.632.195 1.177.362 1.177.808v.022c0 .408-.355.711-.925.711-.222 0-.928-.005-1.692-.488-.092-.054-.146-.091-.216-.136-.023-.016-.135-.059-.173.06zm13.12-2.208c0 .637-.119 1.139-.352 1.494-.231.35-.58.521-1.067.521-.488 0-.835-.17-1.062-.521-.23-.354-.346-.857-.346-1.494 0-.636.116-1.137.346-1.488.227-.347.574-.516 1.062-.516.487 0 .836.169 1.068.516.232.351.35.852.35 1.488m1.096-1.18a2.65 2.65 0 0 0-.5-.955 2.4 2.4 0 0 0-.84-.642 2.8 2.8 0 0 0-1.175-.235c-.445 0-.84.08-1.175.236a2.4 2.4 0 0 0-.843.641 2.7 2.7 0 0 0-.498.954c-.107.363-.16.76-.16 1.181s.053.82.16 1.181c.108.364.275.685.5.954.223.269.506.484.84.636.336.153.731.23 1.176.23a2.8 2.8 0 0 0 1.174-.23c.335-.152.618-.367.842-.636.223-.268.39-.59.498-.954a4.1 4.1 0 0 0 .162-1.18c0-.421-.054-.819-.161-1.182m8.998 3.025c-.036-.107-.14-.066-.14-.066-.159.06-.328.117-.509.146a4 4 0 0 1-.6.043c-.531 0-.952-.158-1.254-.47-.303-.314-.472-.819-.47-1.503.001-.622.15-1.09.42-1.446.267-.355.673-.537 1.216-.537.452 0 .797.052 1.158.166 0 0 .086.038.127-.075.096-.267.167-.458.27-.752.029-.083-.043-.118-.068-.129a4.3 4.3 0 0 0-.731-.184 5.5 5.5 0 0 0-.823-.056c-.46 0-.87.079-1.221.236a2.5 2.5 0 0 0-.883.64q-.353.407-.533.955a3.8 3.8 0 0 0-.179 1.182c0 .912.245 1.648.73 2.188s1.213.816 2.163.816a4.5 4.5 0 0 0 1.552-.278s.079-.038.044-.13zm1.918-2.455q.076-.532.3-.877c.227-.349.573-.54 1.06-.54s.809.192 1.04.54c.152.229.219.536.245.877zm3.69-.778a2.3 2.3 0 0 0-.476-.87q-.357-.388-.704-.538a2.7 2.7 0 0 0-1.063-.216c-.463 0-.883.078-1.224.239q-.515.242-.854.653a2.7 2.7 0 0 0-.502.965 4.2 4.2 0 0 0-.164 1.187c0 .429.057.828.169 1.188.113.361.294.68.538.945.243.266.557.474.933.62.372.144.826.219 1.346.218 1.071-.004 1.636-.243 1.868-.372.041-.023.08-.063.031-.178l-.242-.681c-.037-.102-.14-.064-.14-.064-.265.098-.643.276-1.522.274-.576-.001-1.002-.171-1.27-.437-.274-.272-.408-.673-.432-1.238l3.71.004s.098-.002.108-.097c.003-.04.127-.764-.11-1.602m-33.4.778c.054-.354.15-.648.3-.877.228-.349.574-.54 1.061-.54s.809.192 1.04.54c.153.229.22.536.246.877zm3.69-.778a2.3 2.3 0 0 0-.474-.87q-.359-.388-.704-.538a2.7 2.7 0 0 0-1.063-.216c-.462 0-.884.078-1.225.239q-.515.242-.854.653a2.7 2.7 0 0 0-.502.965 4.2 4.2 0 0 0-.163 1.187c0 .429.056.828.168 1.188.113.361.294.68.538.945q.367.4.933.62c.373.144.826.219 1.346.218 1.072-.004 1.636-.243 1.868-.372.041-.023.08-.063.031-.178l-.241-.681c-.038-.102-.14-.064-.14-.064-.266.098-.642.276-1.524.274-.574-.001-1.001-.171-1.268-.437-.275-.272-.409-.673-.432-1.238l3.71.004s.097-.002.107-.097c.003-.04.127-.764-.111-1.602m-11.707 3.213c-.145-.116-.165-.145-.215-.22q-.11-.173-.11-.484c0-.327.108-.562.331-.72-.003 0 .32-.279 1.076-.269a8 8 0 0 1 1.006.086v1.691h.001s-.471.101-1.002.133c-.755.046-1.09-.218-1.087-.217m1.476-2.613a8 8 0 0 0-.58-.017c-.317 0-.625.04-.913.117q-.436.119-.775.36c-.224.16-.408.37-.538.614a1.8 1.8 0 0 0-.198.857q0 .496.17.85.17.353.484.58.31.228.756.328c.29.067.62.101.982.101.38 0 .76-.031 1.127-.094.363-.062.81-.153.934-.181q.13-.031.26-.067c.092-.023.085-.121.085-.121l-.002-3.401c0-.746-.199-1.299-.59-1.642s-.963-.514-1.704-.514c-.278 0-.726.038-.994.092 0 0-.81.157-1.144.419 0 0-.073.045-.033.148l.263.707c.033.092.121.06.121.06s.028-.01.061-.03c.714-.389 1.617-.377 1.617-.377.401 0 .71.08.917.24.202.156.305.39.305.886v.157c-.319-.046-.611-.072-.611-.072m29.92-1.916a.1.1 0 0 0-.056-.134 3.2 3.2 0 0 0-.622-.107c-.466-.028-.725.05-.956.155-.23.104-.485.272-.628.463V36.3c0-.063-.044-.114-.106-.114h-.951c-.062 0-.107.05-.107.114v5.547c0 .062.051.113.113.113h.975a.11.11 0 0 0 .112-.113v-2.771c0-.372.041-.743.123-.977.08-.23.19-.415.325-.547q.204-.198.458-.276c.173-.053.363-.07.498-.07.194 0 .407.05.407.05.072.008.112-.036.135-.1.064-.17.245-.68.28-.781"/><path fill="#fff" d="M46.142 33.805a3 3 0 0 0-.367-.088 3 3 0 0 0-.504-.038c-.67 0-1.2.19-1.57.565-.37.373-.62.94-.746 1.687l-.046.251h-.842s-.102-.004-.124.108l-.138.774c-.01.073.022.12.12.12h.82l-.831 4.654c-.065.374-.14.683-.223.916-.081.23-.16.404-.259.53-.095.12-.184.21-.339.262a1.4 1.4 0 0 1-.437.063c-.089 0-.208-.015-.297-.033a1 1 0 0 1-.2-.065s-.096-.036-.134.06c-.03.08-.25.681-.276.756-.025.074.011.131.058.148a2.3 2.3 0 0 0 .882.151c.341 0 .653-.048.91-.141a1.7 1.7 0 0 0 .686-.48c.217-.239.352-.49.482-.832.128-.338.239-.759.326-1.248l.836-4.741h1.222s.103.004.124-.109l.138-.773c.01-.074-.021-.12-.12-.12h-1.187c.006-.026.06-.445.196-.839.059-.167.168-.303.26-.396a.8.8 0 0 1 .31-.194q.178-.058.4-.057c.11 0 .22.013.304.03.115.025.16.038.19.047.12.036.137 0 .16-.058l.284-.78c.03-.084-.043-.12-.068-.13M29.57 41.848c0 .062-.045.112-.107.112h-.983c-.062 0-.106-.05-.106-.112V33.91c0-.062.044-.112.106-.112h.983c.062 0 .107.05.107.112z"/></svg>
